Numix-Circle/48x48/apps/goa-account-yahoo.svg

<svg width="48" xmlns="http://www.w3.org/2000/svg" height="48" viewBox="0 0 48 48" xmlns:xlink="http://www.w3.org/1999/xlink">
<g style="fill:#6c3895">
<path d="M 5.25 12.9375 L 5.253906 14.65625 L 10.207031 15.105469 L 19.574219 26.40625 L 19.859375 32.25 C 19.609375 33.261719 18.808594 32.898438 18.234375 33.109375 L 14.773438 33.136719 L 14.808594 34.636719 L 30.234375 34.507812 L 30.234375 33.046875 L 25.691406 33.015625 C 25.121094 33.105469 25.167969 32.683594 25.117188 32.34375 L 24.832031 26.789062 C 24.902344 26.34375 24.996094 25.894531 25.59375 25.449219 L 34.578125 18.265625 L 38.785156 17.5 L 39.445312 16.171875 L 25.464844 16.171875 L 25.691406 17.597656 L 29.703125 17.980469 C 29.945312 18.171875 30.417969 18.160156 29.894531 19.03125 L 24.066406 24.109375 C 23.757812 24.289062 23.519531 24.191406 23.300781 24.011719 L 16.800781 15.488281 C 16.320312 14.808594 16.792969 14.683594 17.375 14.628906 L 21.582031 14.4375 L 21.582031 13 Z "/>
<path d="M 33.777344 31.710938 L 35.632812 32.863281 L 34.382812 35.0625 L 32.492188 33.878906 Z "/>
<path d="M 34.675781 29.710938 L 36.25 30.714844 L 42.75 20.039062 L 39.070312 17.929688 Z "/>
</g>
</svg>

<svg xmlns="http://www.w3.org/2000/svg" viewBox="0 0 48 48">
 <g style="fill:#6c3895">
  <path d="m 5.25 12.938 l 0.004 1.719 l 4.953 0.449 l 9.367 11.301 l 0.285 5.844 c -0.25 1.012 -1.051 0.648 -1.625 0.859 l -3.461 0.027 l 0.035 1.5 l 15.426 -0.129 l 0 -1.461 l -4.543 -0.031 c -0.57 0.09 -0.523 -0.332 -0.574 -0.672 l -0.285 -5.555 c 0.07 -0.445 0.164 -0.895 0.762 -1.34 l 8.984 -7.184 l 4.207 -0.766 l 0.66 -1.328 l -13.98 0 l 0.227 1.426 l 4.01 0.383 c 0.242 0.191 0.715 0.18 0.191 1.051 l -5.828 5.078 c -0.309 0.18 -0.547 0.082 -0.766 -0.098 l -6.5 -8.523 c -0.48 -0.68 -0.008 -0.805 0.574 -0.859 l 4.207 -0.191 l 0 -1.438 Z"/>
  <path d="m 33.777 31.711 l 1.855 1.152 l -1.25 2.199 l -1.891 -1.184 Z"/>
  <path d="m 34.676 29.711 l 1.574 1 l 6.5 -10.676 l -3.68 -2.109 Z"/>
 </g>
</svg>
